X: 116
T: No_51_Singing_to_the_Leaves_and_Flowers.krn
N: Derived from No_51_Singing_to_the_Leaves_and_Flowers.krn
%%abc-version 2.0
%%abcx-abcm2ps-target-version 5.9.1 (29 Sep 2008)
%%abc-creator hum2abc beta
%%abcx-conversion-date 2019/03/15 08:37:56
%%humdrum-veritas 1084454537
%%humdrum-veritas-data 3073823644
%%linebreak <none>
%%barnumbers 0
L: 1/8
M: 3/4
K: D clef=bass
B,2 [I:setbarnb 1]| 
A,3F,B,2 | 
A,3F, (A,3/F,/) | 
F,3F,E,2 | 
E,3D, D,3/B,,/ ||  
[M:2/4]D,2B,,2 | 
A,,2F,3/F,/ | 
[M:3/4]E,2D,2F,3/F,/ [I:setbarnb 8]| 
E,2E,2D,3/B,,/ ||  
[M:2/4]D,2B,,2 | 
E,3/E,/E,2 ||  
[M:3/4]E,3/D,/B,,2D,3/D,/ ||  
[M:2/4]D,4- | 
[M:1/4]D,2 :|]  



